apps/48/preferences-desktop-wallpaper.svg

<?xml version="1.0" encoding="UTF-8" standalone="no"?>
<!-- Created with Inkscape (http://www.inkscape.org/) -->

<svg
   xmlns:dc="http://purl.org/dc/elements/1.1/"
   xmlns:cc="http://creativecommons.org/ns#"
   xmlns:rdf="http://www.w3.org/1999/02/22-rdf-syntax-ns#"
   xmlns:svg="http://www.w3.org/2000/svg"
   xmlns="http://www.w3.org/2000/svg"
   xmlns:xlink="http://www.w3.org/1999/xlink"
   xmlns:sodipodi="http://sodipodi.sourceforge.net/DTD/sodipodi-0.dtd"
   xmlns:inkscape="http://www.inkscape.org/namespaces/inkscape"
   version="1.0"
   width="48"
   height="48"
   id="svg3386"
   inkscape:version="0.92.4 5da689c313, 2019-01-14"
   sodipodi:docname="preferences-desktop-wallpaper.svg">
  <metadata
     id="metadata98980">
    <rdf:RDF>
      <cc:Work
         rdf:about="">
        <dc:format>image/svg+xml</dc:format>
        <dc:type
           rdf:resource="http://purl.org/dc/dcmitype/StillImage" />
      </cc:Work>
    </rdf:RDF>
  </metadata>
  <sodipodi:namedview
     pagecolor="#ffffff"
     bordercolor="#666666"
     borderopacity="1"
     objecttolerance="10"
     gridtolerance="10"
     guidetolerance="10"
     inkscape:pageopacity="0"
     inkscape:pageshadow="2"
     inkscape:window-width="1680"
     inkscape:window-height="990"
     id="namedview98978"
     showgrid="false"
     inkscape:zoom="16.458333"
     inkscape:cx="24"
     inkscape:cy="24"
     inkscape:window-x="0"
     inkscape:window-y="31"
     inkscape:window-maximized="1"
     inkscape:current-layer="svg3386" />
  <defs
     id="defs3388">
    <linearGradient
       id="linearGradient10691-1">
      <stop
         id="stop10693-3"
         style="stop-color:#000000;stop-opacity:1"
         offset="0" />
      <stop
         id="stop10695-1"
         style="stop-color:#000000;stop-opacity:0"
         offset="1" />
    </linearGradient>
    <radialGradient
       cx="6.702713"
       cy="73.615715"
       r="7.228416"
       fx="6.702713"
       fy="73.615715"
       id="radialGradient2452"
       xlink:href="#linearGradient10691-1"
       gradientUnits="userSpaceOnUse"
       gradientTransform="matrix(1.9368007,0,0,0.4150287,11.018182,13.447365)" />
    <linearGradient
       id="linearGradient4518">
      <stop
         id="stop4520"
         style="stop-color:#7e7e7e;stop-opacity:0.94901961"
         offset="0" />
      <stop
         id="stop4522"
         style="stop-color:#969696;stop-opacity:1"
         offset="1" />
    </linearGradient>
    <linearGradient
       x1="24.687456"
       y1="40.812702"
       x2="24.739107"
       y2="33.999802"
       id="linearGradient2449"
       xlink:href="#linearGradient4518"
       gradientUnits="userSpaceOnUse"
       gradientTransform="matrix(1.116455,0,0,1,-2.7949567,2.000003)" />
    <linearGradient
       id="linearGradient4510">
      <stop
         id="stop4512"
         style="stop-color:#a5a6aa;stop-opacity:1"
         offset="0" />
      <stop
         id="stop4514"
         style="stop-color:#e2e2e4;stop-opacity:1"
         offset="0.22134377" />
      <stop
         id="stop4516"
         style="stop-color:#595959;stop-opacity:1"
         offset="1" />
    </linearGradient>
    <linearGradient
       x1="318.42093"
       y1="93.29171"
       x2="318.42093"
       y2="78.342476"
       id="linearGradient2447"
       xlink:href="#linearGradient4510"
       gradientUnits="userSpaceOnUse"
       gradientTransform="matrix(1.4628351,0,0,0.7083672,-444.01094,-22.190508)" />
    <linearGradient
       id="linearGradient3342">
      <stop
         id="stop3344"
         style="stop-color:#ffffff;stop-opacity:0"
         offset="0" />
      <stop
         id="stop3346"
         style="stop-color:#ffffff;stop-opacity:1"
         offset="1" />
    </linearGradient>
    <linearGradient
       x1="15.573899"
       y1="46.971004"
       x2="23.593679"
       y2="46.971004"
       id="linearGradient2444"
       xlink:href="#linearGradient3342"
       gradientUnits="userSpaceOnUse"
       gradientTransform="matrix(1.1176471,0,0,1,-2.3519696,-3.0710029)"
       spreadMethod="reflect" />
    <linearGradient
       id="linearGradient9936">
      <stop
         id="stop9938"
         style="stop-color:#575757;stop-opacity:1"
         offset="0" />
      <stop
         id="stop9940"
         style="stop-color:#333333;stop-opacity:1"
         offset="1" />
    </linearGradient>
    <radialGradient
       cx="12.244348"
       cy="4.8630676"
       r="20.999998"
       fx="12.244348"
       fy="4.8630676"
       id="radialGradient2440"
       xlink:href="#linearGradient9936"
       gradientUnits="userSpaceOnUse"
       gradientTransform="matrix(1.4167634,0.01999111,-0.01319114,1.1175011,-5.3255699,6.599117)" />
    <linearGradient
       id="linearGradient2867-449-88-871-390-598-476-591-434-148">
      <stop
         id="stop4627"
         style="stop-color:#51cfee;stop-opacity:1"
         offset="0" />
      <stop
         id="stop4629"
         style="stop-color:#49a3d2;stop-opacity:1"
         offset="0.26238" />
      <stop
         id="stop4631"
         style="stop-color:#3470b4;stop-opacity:1"
         offset="0.704952" />
      <stop
         id="stop4633"
         style="stop-color:#1b5699;stop-opacity:1"
         offset="1" />
    </linearGradient>
    <radialGradient
       cx="2.6082575"
       cy="-16.638557"
       r="23"
       fx="2.6082575"
       fy="-16.638557"
       id="radialGradient3382"
       xlink:href="#linearGradient2867-449-88-871-390-598-476-591-434-148"
       gradientUnits="userSpaceOnUse"
       gradientTransform="matrix(9.2228424e-8,1.4278012,-2.2908757,6.4501052e-8,-14.116869,4.9248736)" />
    <linearGradient
       id="linearGradient6592-2-7-4-6">
      <stop
         id="stop6594-0-2-6-7"
         style="stop-color:#ffffff;stop-opacity:0.27450982"
         offset="0" />
      <stop
         id="stop6596-2-5-9-6"
         style="stop-color:#ffffff;stop-opacity:0"
         offset="1" />
    </linearGradient>
    <linearGradient
       x1="12.9375"
       y1="8.4375"
       x2="15.25"
       y2="19.8125"
       id="linearGradient2432"
       xlink:href="#linearGradient6592-2-7-4-6"
       gradientUnits="userSpaceOnUse"
       gradientTransform="matrix(1.0952382,0,0,1.3333324,-2.2857144,2.4e-6)" />
    <filter
       height="1.2150327"
       y="-0.10751635"
       width="1.1734241"
       x="-0.086712047"
       id="filter3198">
      <feGaussianBlur
         id="feGaussianBlur3200"
         stdDeviation="0.71710775"
         inkscape:collect="always" />
    </filter>
    <linearGradient
       id="linearGradient8589-4-3">
      <stop
         id="stop8591-7-2"
         style="stop-color:#fefefe;stop-opacity:1"
         offset="0" />
      <stop
         id="stop8593-2-4"
         style="stop-color:#cbcbcb;stop-opacity:1"
         offset="1" />
    </linearGradient>
    <linearGradient
       x1="32.892288"
       y1="8.0590115"
       x2="36.358372"
       y2="5.4565363"
       id="linearGradient3225"
       xlink:href="#linearGradient8589-4-3"
       gradientUnits="userSpaceOnUse"
       gradientTransform="matrix(1.4357745,0,0,1.5351225,-14.50942,3.632103)" />
  </defs>
  <path
     inkscape:connector-curvature="0"
     style="display:inline;fill:url(#linearGradient2447);fill-opacity:1;stroke:#000000;stroke-width:0.1;stroke-linecap:round;stroke-linejoin:round;stroke-miterlimit:4;stroke-dasharray:none;stroke-dashoffset:0.5;stroke-opacity:0.39215687;enable-background:new"
     id="rect1789"
     d="m 17.859462,36.249806 c 0,0 0.141772,4.25777 -0.565344,5.250194 -0.707116,0.992424 -2.114148,1.004 -2.114148,1.004 -0.902888,0.104262 -0.910357,1.996 0,1.996 h 17.63999 c 0.910357,0 0.903077,-1.893068 0,-1.996 0,0 -1.406971,-0.01158 -2.114077,-1.004 -0.707106,-0.992422 -0.565415,-5.250194 -0.565415,-5.250194 z" />
  <path
     inkscape:connector-curvature="0"
     style="fill:none;stroke:url(#linearGradient2444);stroke-width:1px;stroke-linecap:square;stroke-linejoin:miter;stroke-opacity:1"
     id="path3340"
     d="M 15.612977,43.9 H 32.387023" />
  <rect
     style="fill:#1a1a1a;fill-opacity:1;stroke:none;stroke-width:1.00023937;stroke-linecap:round;stroke-linejoin:round;stroke-miterlimit:4;stroke-dasharray:none;stroke-dashoffset:0.5;stroke-opacity:1"
     id="rect2722"
     y="3.5001206"
     x="0.5001179"
     ry="1"
     rx="1.0444448"
     height="32.99976"
     width="46.999763" />
  <rect
     style="display:inline;fill:url(#radialGradient2440);fill-opacity:1;fill-rule:evenodd;stroke:none;enable-background:new"
     id="rect2716"
     y="6"
     x="3.0000002"
     height="28"
     width="42" />
  <path
     inkscape:connector-curvature="0"
     style="display:inline;overflow:visible;visibility:visible;opacity:1;fill:url(#radialGradient3382);fill-opacity:1;fill-rule:evenodd;stroke:none;stroke-width:1.00213289;stroke-linecap:round;stroke-linejoin:round;stroke-miterlimit:4;stroke-dasharray:none;stroke-dashoffset:0;stroke-opacity:1;marker:none;marker-start:none;marker-mid:none;marker-end:none;enable-background:accumulate"
     id="path4322"
     d="M 3,6 C 11.215899,6 19.578149,6.090505 27.794048,6.090505 29.235303,6.5435246 42.978122,16.438352 45,20.01191 45,30.949358 45,23.062552 45,34 33.048765,34 14.951232,34 3,34 3,19.999994 3,20.000005 3,6 Z" />
  <path
     inkscape:connector-curvature="0"
     style="display:inline;fill:url(#linearGradient3225);fill-opacity:1;fill-rule:evenodd;stroke:#000000;stroke-opacity:0.39215687;stroke-width:0.1;stroke-miterlimit:4;stroke-dasharray:none"
     id="path4893"
     d="m 26.797285,6.0081794 c 3.568454,0.655556 3.193387,12.1626566 3.193387,12.1626566 0,0 14.671274,-0.7593 15.026417,2.627962 C 45.939505,18.805716 34.358556,8.7307876 28.662519,6.4622745 27.930604,6.1707807 27.295855,6.0081794 26.797285,6.0081794 Z" />
</svg>

<?xml version="1.0" encoding="UTF-8" standalone="no"?>
<!-- Created with Inkscape (http://www.inkscape.org/) -->

<svg
   xmlns:dc="http://purl.org/dc/elements/1.1/"
   xmlns:cc="http://creativecommons.org/ns#"
   xmlns:rdf="http://www.w3.org/1999/02/22-rdf-syntax-ns#"
   xmlns:svg="http://www.w3.org/2000/svg"
   xmlns="http://www.w3.org/2000/svg"
   xmlns:xlink="http://www.w3.org/1999/xlink"
   xmlns:sodipodi="http://sodipodi.sourceforge.net/DTD/sodipodi-0.dtd"
   xmlns:inkscape="http://www.inkscape.org/namespaces/inkscape"
   version="1.0"
   width="48"
   height="48"
   id="svg3386"
   inkscape:version="0.48.3.1 r9886"
   sodipodi:docname="wallpaper.svg">
  <metadata
     id="metadata98980">
    <rdf:RDF>
      <cc:Work
         rdf:about="">
        <dc:format>image/svg+xml</dc:format>
        <dc:type
           rdf:resource="http://purl.org/dc/dcmitype/StillImage" />
      </cc:Work>
    </rdf:RDF>
  </metadata>
  <sodipodi:namedview
     pagecolor="#ffffff"
     bordercolor="#666666"
     borderopacity="1"
     objecttolerance="10"
     gridtolerance="10"
     guidetolerance="10"
     inkscape:pageopacity="0"
     inkscape:pageshadow="2"
     inkscape:window-width="640"
     inkscape:window-height="480"
     id="namedview98978" />
  <defs
     id="defs3388">
    <linearGradient
       id="linearGradient10691-1">
      <stop
         id="stop10693-3"
         style="stop-color:#000000;stop-opacity:1"
         offset="0" />
      <stop
         id="stop10695-1"
         style="stop-color:#000000;stop-opacity:0"
         offset="1" />
    </linearGradient>
    <radialGradient
       cx="6.702713"
       cy="73.615715"
       r="7.228416"
       fx="6.702713"
       fy="73.615715"
       id="radialGradient2452"
       xlink:href="#linearGradient10691-1"
       gradientUnits="userSpaceOnUse"
       gradientTransform="matrix(1.9368007,0,0,0.4150287,11.018182,13.447365)" />
    <linearGradient
       id="linearGradient4518">
      <stop
         id="stop4520"
         style="stop-color:#7e7e7e;stop-opacity:0.94901961"
         offset="0" />
      <stop
         id="stop4522"
         style="stop-color:#969696;stop-opacity:1"
         offset="1" />
    </linearGradient>
    <linearGradient
       x1="24.687456"
       y1="40.812702"
       x2="24.739107"
       y2="33.999802"
       id="linearGradient2449"
       xlink:href="#linearGradient4518"
       gradientUnits="userSpaceOnUse"
       gradientTransform="matrix(1.116455,0,0,1,-2.7949567,2.000003)" />
    <linearGradient
       id="linearGradient4510">
      <stop
         id="stop4512"
         style="stop-color:#a5a6aa;stop-opacity:1"
         offset="0" />
      <stop
         id="stop4514"
         style="stop-color:#e2e2e4;stop-opacity:1"
         offset="0.22134377" />
      <stop
         id="stop4516"
         style="stop-color:#595959;stop-opacity:1"
         offset="1" />
    </linearGradient>
    <linearGradient
       x1="318.42093"
       y1="93.29171"
       x2="318.42093"
       y2="78.342476"
       id="linearGradient2447"
       xlink:href="#linearGradient4510"
       gradientUnits="userSpaceOnUse"
       gradientTransform="matrix(1.4628351,0,0,0.7083672,-444.01094,-22.190508)" />
    <linearGradient
       id="linearGradient3342">
      <stop
         id="stop3344"
         style="stop-color:#ffffff;stop-opacity:0"
         offset="0" />
      <stop
         id="stop3346"
         style="stop-color:#ffffff;stop-opacity:1"
         offset="1" />
    </linearGradient>
    <linearGradient
       x1="15.573899"
       y1="46.971004"
       x2="23.593679"
       y2="46.971004"
       id="linearGradient2444"
       xlink:href="#linearGradient3342"
       gradientUnits="userSpaceOnUse"
       gradientTransform="matrix(1.1176471,0,0,1,-2.3519696,-3.4710029)"
       spreadMethod="reflect" />
    <linearGradient
       id="linearGradient9936">
      <stop
         id="stop9938"
         style="stop-color:#575757;stop-opacity:1"
         offset="0" />
      <stop
         id="stop9940"
         style="stop-color:#333333;stop-opacity:1"
         offset="1" />
    </linearGradient>
    <radialGradient
       cx="12.244348"
       cy="4.8630676"
       r="20.999998"
       fx="12.244348"
       fy="4.8630676"
       id="radialGradient2440"
       xlink:href="#linearGradient9936"
       gradientUnits="userSpaceOnUse"
       gradientTransform="matrix(1.4167634,1.999111e-2,-1.319114e-2,1.1175011,-5.3255699,6.599117)" />
    <linearGradient
       id="linearGradient2867-449-88-871-390-598-476-591-434-148">
      <stop
         id="stop4627"
         style="stop-color:#51cfee;stop-opacity:1"
         offset="0" />
      <stop
         id="stop4629"
         style="stop-color:#49a3d2;stop-opacity:1"
         offset="0.26238" />
      <stop
         id="stop4631"
         style="stop-color:#3470b4;stop-opacity:1"
         offset="0.704952" />
      <stop
         id="stop4633"
         style="stop-color:#1b5699;stop-opacity:1"
         offset="1" />
    </linearGradient>
    <radialGradient
       cx="2.6082575"
       cy="-16.638557"
       r="23"
       fx="2.6082575"
       fy="-16.638557"
       id="radialGradient3382"
       xlink:href="#linearGradient2867-449-88-871-390-598-476-591-434-148"
       gradientUnits="userSpaceOnUse"
       gradientTransform="matrix(9.2228424e-8,1.4278012,-2.2908757,6.4501052e-8,-14.116869,4.9248736)" />
    <linearGradient
       id="linearGradient6592-2-7-4-6">
      <stop
         id="stop6594-0-2-6-7"
         style="stop-color:#ffffff;stop-opacity:0.27450982"
         offset="0" />
      <stop
         id="stop6596-2-5-9-6"
         style="stop-color:#ffffff;stop-opacity:0"
         offset="1" />
    </linearGradient>
    <linearGradient
       x1="12.9375"
       y1="8.4375"
       x2="15.25"
       y2="19.8125"
       id="linearGradient2432"
       xlink:href="#linearGradient6592-2-7-4-6"
       gradientUnits="userSpaceOnUse"
       gradientTransform="matrix(1.0952382,0,0,1.3333324,-2.2857144,2.4e-6)" />
    <filter
       height="1.2150327"
       y="-0.10751635"
       width="1.1734241"
       x="-0.086712047"
       id="filter3198">
      <feGaussianBlur
         id="feGaussianBlur3200"
         stdDeviation="0.71710775"
         inkscape:collect="always" />
    </filter>
    <linearGradient
       id="linearGradient8589-4-3">
      <stop
         id="stop8591-7-2"
         style="stop-color:#fefefe;stop-opacity:1"
         offset="0" />
      <stop
         id="stop8593-2-4"
         style="stop-color:#cbcbcb;stop-opacity:1"
         offset="1" />
    </linearGradient>
    <linearGradient
       x1="32.892288"
       y1="8.0590115"
       x2="36.358372"
       y2="5.4565363"
       id="linearGradient3225"
       xlink:href="#linearGradient8589-4-3"
       gradientUnits="userSpaceOnUse"
       gradientTransform="matrix(1.4357745,0,0,1.5351225,-14.50942,3.632103)" />
  </defs>
  <g
     id="layer1">
    <path
       d="M 38,44 C 38,45.656855 31.731986,47 23.999999,47 C 16.268013,47 10,45.656855 10,44 C 10,42.343146 16.268013,41 23.999999,41 C 31.731986,41 38,42.343146 38,44 L 38,44 z"
       id="path2589"
       style="opacity:0.3;fill:url(#radialGradient2452);fill-opacity:1;fill-rule:nonzero;stroke:none;stroke-width:0.80000001;marker:none;visibility:visible;display:inline;overflow:visible" />
    <path
       d="M 17.859462,36.249806 C 17.859462,36.249806 18.001234,40.507576 17.294118,41.5 C 16.587002,42.492424 15.17997,42.504 15.17997,42.504 C 14.277082,42.608262 14.269613,44.5 15.17997,44.5 L 32.81996,44.5 C 33.730317,44.5 33.723037,42.606932 32.81996,42.504 C 32.81996,42.504 31.412989,42.49242 30.705883,41.5 C 29.998777,40.507578 30.140468,36.249806 30.140468,36.249806 L 17.859462,36.249806 L 17.859462,36.249806 z"
       id="rect1789"
       style="fill:url(#linearGradient2447);fill-opacity:1;stroke:url(#linearGradient2449);stroke-width:1;stroke-linecap:round;stroke-linejoin:round;stroke-miterlimit:4;stroke-dasharray:none;stroke-dashoffset:0.50000001;stroke-opacity:1;display:inline;enable-background:new" />
    <path
       d="M 15.612977,43.5 L 32.387023,43.5"
       id="path3340"
       style="fill:none;stroke:url(#linearGradient2444);stroke-width:1px;stroke-linecap:square;stroke-linejoin:miter;stroke-opacity:1" />
    <rect
       width="46.999763"
       height="32.99976"
       rx="1.0444448"
       ry="1"
       x="0.5001179"
       y="3.5001206"
       id="rect2722"
       style="fill:#1a1a1a;fill-opacity:1;stroke:#000000;stroke-width:1.00023937;stroke-linecap:round;stroke-linejoin:round;stroke-miterlimit:4;stroke-dasharray:none;stroke-dashoffset:0.50000001;stroke-opacity:1" />
    <rect
       width="42"
       height="28"
       x="3.0000002"
       y="6"
       id="rect2716"
       style="fill:url(#radialGradient2440);fill-opacity:1;fill-rule:evenodd;stroke:none;display:inline;enable-background:new" />
    <path
       d="M 3,6 C 11.215899,6 19.578149,6.090505 27.794048,6.090505 C 29.235303,6.5435246 42.978122,16.438352 45,20.01191 C 45,30.949358 45,23.062552 45,34 C 33.048765,34 14.951232,34 3,34 C 3,19.999994 3,20.000005 3,6 L 3,6 z"
       id="path4322"
       style="opacity:1;fill:url(#radialGradient3382);fill-opacity:1;fill-rule:evenodd;stroke:none;stroke-width:1.00213289;stroke-linecap:round;stroke-linejoin:round;marker:none;marker-start:none;marker-mid:none;marker-end:none;stroke-miterlimit:4;stroke-dasharray:none;stroke-dashoffset:0;stroke-opacity:1;visibility:visible;display:inline;overflow:visible;enable-background:accumulate" />
    <path
       d="M 1,4 L 47,4 L 47,14.666672 L 1,24 L 1,4 z"
       id="rect6588"
       style="fill:url(#linearGradient2432);fill-opacity:1;stroke:none" />
    <path
       d="M 25.684596,5.7861626 C 29.323179,5.435962 28.527828,19.806198 28.527828,19.806198 C 28.527828,19.806198 44.621047,18.957737 45.052635,21.760536 C 48.903382,18.491632 28.399128,4.9994627 25.684596,5.7861626 z"
       id="path4891"
       style="opacity:0.3;fill:#000000;fill-opacity:1;fill-rule:evenodd;stroke:none;stroke-width:1.5;stroke-linecap:butt;stroke-linejoin:round;stroke-miterlimit:4;stroke-dasharray:none;stroke-opacity:0.44444442;display:inline;filter:url(#filter3198)" />
    <path
       d="M 26.797285,6.0081794 C 30.365739,6.6637354 29.990672,18.170836 29.990672,18.170836 C 29.990672,18.170836 44.661946,17.411536 45.017089,20.798798 C 45.939505,18.805716 34.358556,8.7307876 28.662519,6.4622745 C 27.930604,6.1707807 27.295855,6.0081794 26.797285,6.0081794 z"
       id="path4893"
       style="fill:url(#linearGradient3225);fill-opacity:1;fill-rule:evenodd;stroke:none;display:inline" />
  </g>
</svg>
